static/logos/slack-wordmark-color.svg

<svg width="100" height="25" viewBox="0 0 100 25" fill="none" xmlns="http://www.w3.org/2000/svg">
<g clip-path="url(#clip0_1_1048)">
<path d="M31.5238 19.7822L32.7442 16.9297C34.0805 17.9193 35.8234 18.4431 37.5667 18.4431C38.845 18.4431 39.6584 17.9485 39.6584 17.1918C39.6292 15.096 31.9596 16.726 31.9013 11.4568C31.8721 8.77891 34.2546 6.71225 37.625 6.71225C39.6292 6.71225 41.6342 7.20725 43.0575 8.34266L41.9171 11.256C40.6075 10.4139 38.99 9.82683 37.4505 9.82683C36.4046 9.82683 35.7071 10.3214 35.7071 10.9622C35.7363 13.0289 43.4646 11.8935 43.5517 16.9297C43.5517 19.666 41.2271 21.5872 37.915 21.5872C35.475 21.5872 33.238 21.0052 31.5234 19.7822H31.5238ZM80.1188 15.8968C79.8107 16.4442 79.3626 16.8997 78.8204 17.2168C78.2782 17.5338 77.6615 17.7009 77.0334 17.701C75.0759 17.701 73.4892 16.111 73.4892 14.1497C73.4892 12.1885 75.0759 10.5985 77.0334 10.5985C77.6615 10.5985 78.2782 10.7657 78.8204 11.0827C79.3626 11.3997 79.8107 11.8553 80.1188 12.4027L83.5117 10.5193C82.2409 8.24808 79.8167 6.71225 77.0334 6.71225C72.9338 6.71225 69.6105 10.0418 69.6105 14.1497C69.6105 18.2572 72.9338 21.5872 77.0334 21.5872C79.8167 21.5872 82.2409 20.0514 83.5117 17.7802L80.1188 15.8968ZM45.7534 21.296H49.995V0.520996H45.7538L45.7534 21.296ZM85.6538 0.520996V21.296H89.8955V15.0718L94.9217 21.296H100.344L93.9517 13.9018L99.8784 7.00225H94.6892L89.8955 12.7385V0.520996H85.6538ZM63.063 7.00308V8.69183C62.3659 7.52725 60.6517 6.71225 58.8505 6.71225C55.1317 6.71225 52.1975 10.0018 52.1975 14.1352C52.1975 18.2685 55.1317 21.5872 58.8505 21.5872C60.6517 21.5872 62.3659 20.7722 63.063 19.6077V21.296H67.3046V7.00308H63.063ZM63.063 15.9256C62.453 16.9443 61.1746 17.7006 59.7513 17.7006C57.7934 17.7006 56.2067 16.111 56.2067 14.1497C56.2067 12.1885 57.7934 10.5985 59.7513 10.5985C61.1746 10.5985 62.453 11.3843 63.063 12.4318V15.9256Z" fill="black"/>
<path d="M9.12583 0.0617676C7.75125 0.0617676 6.63708 1.17843 6.63708 2.55552C6.63676 2.88267 6.70087 3.20669 6.82576 3.50907C6.95066 3.81145 7.13388 4.08626 7.36499 4.31783C7.59609 4.5494 7.87054 4.73318 8.17266 4.85868C8.47479 4.98418 8.79868 5.04894 9.12583 5.04927H11.615V2.55552C11.6156 1.89476 11.3536 1.26084 10.8868 0.79318C10.42 0.325523 9.78659 0.0624303 9.12583 0.0617676ZM9.12583 6.71177H2.48875C1.11417 6.71177 0 7.82843 0 9.20593C0 10.583 1.11417 11.6997 2.48875 11.6997H9.12625C10.5004 11.6997 11.615 10.583 11.615 9.20593C11.615 7.82843 10.5004 6.71177 9.12583 6.71177Z" fill="#2FBDEE"/>
<path d="M24.8884 9.20593C24.8884 7.82843 23.7738 6.71177 22.3992 6.71177C21.0246 6.71177 19.9105 7.82843 19.9105 9.20593V11.6997H22.3992C23.06 11.699 23.6934 11.4359 24.1602 10.9683C24.627 10.5006 24.8889 9.86669 24.8884 9.20593ZM18.2513 9.20593V2.55552C18.2518 1.89476 17.9899 1.26084 17.5231 0.79318C17.0563 0.325523 16.4229 0.0624303 15.7621 0.0617676C14.3875 0.0617676 13.2734 1.17843 13.2734 2.55552V9.20552C13.2734 10.5834 14.3875 11.7001 15.7621 11.7001C16.4229 11.6994 17.0563 11.4363 17.5231 10.9687C17.9899 10.501 18.2518 9.86711 18.2513 9.20635" fill="#29AD72"/>
<path d="M15.7621 25.0002C16.4229 24.9996 17.0563 24.7365 17.5231 24.2688C17.9899 23.8012 18.2518 23.1672 18.2513 22.5065C18.2518 21.8457 17.9899 21.2118 17.5231 20.7441C17.0563 20.2765 16.4229 20.0134 15.7621 20.0127H13.2734V22.5065C13.2734 23.8836 14.3875 25.0002 15.7621 25.0002ZM15.7621 18.3502H22.3996C23.7738 18.3502 24.8884 17.2336 24.8884 15.8561C24.8889 15.1953 24.627 14.5614 24.1602 14.0937C23.6934 13.6261 23.06 13.363 22.3992 13.3623H15.7621C14.3875 13.3623 13.2734 14.479 13.2734 15.8561C13.273 16.1832 13.3372 16.5072 13.4621 16.8096C13.5869 17.112 13.7702 17.3868 14.0013 17.6184C14.2324 17.8499 14.5068 18.0337 14.809 18.1592C15.1111 18.2847 15.435 18.3495 15.7621 18.3498" fill="#E9A929"/>
<path d="M1.25576e-06 15.8561C-0.000327214 16.1832 0.0637857 16.5072 0.188679 16.8096C0.313573 17.112 0.496801 17.3868 0.727903 17.6184C0.959005 17.8499 1.23345 18.0337 1.53558 18.1592C1.83771 18.2847 2.1616 18.3495 2.48875 18.3498C3.14951 18.3491 3.78295 18.086 4.24975 17.6184C4.71654 17.1507 4.97847 16.5168 4.97792 15.8561V13.3623H2.48875C1.11417 13.3623 1.25576e-06 14.479 1.25576e-06 15.8561ZM6.63708 15.8561V22.5061C6.63708 23.8836 7.75125 25.0002 9.12583 25.0002C9.78659 24.9996 10.42 24.7365 10.8868 24.2688C11.3536 23.8012 11.6156 23.1672 11.615 22.5065V15.8561C11.6153 15.5289 11.5512 15.2048 11.4263 14.9024C11.3014 14.6 11.1181 14.3252 10.887 14.0936C10.6558 13.862 10.3813 13.6783 10.0791 13.5528C9.77696 13.4273 9.45303 13.3626 9.12583 13.3623C7.75125 13.3623 6.63708 14.479 6.63708 15.8561Z" fill="#DC1C50"/>
</g>
<defs>
<clipPath id="clip0_1_1048">
<rect width="100" height="25" fill="white"/>
</clipPath>
</defs>
</svg>

<svg xmlns="http://www.w3.org/2000/svg" width="256" height="64" fill="none" viewBox="0 0 100 25"><g clip-path="url(#a)"><path fill="#000" d="m31.524 19.782 1.22-2.852c1.337.99 3.08 1.513 4.823 1.513 1.278 0 2.091-.495 2.091-1.251-.029-2.096-7.698-.466-7.757-5.735-.029-2.678 2.354-4.745 5.724-4.745 2.004 0 4.01.495 5.432 1.63l-1.14 2.914c-1.31-.842-2.927-1.43-4.467-1.43-1.045 0-1.743.495-1.743 1.136.03 2.067 7.758.931 7.845 5.968 0 2.736-2.325 4.657-5.637 4.657-2.44 0-4.677-.582-6.392-1.805Zm48.595-3.885a3.541 3.541 0 0 1-6.63-1.747 3.548 3.548 0 0 1 3.544-3.552 3.54 3.54 0 0 1 3.086 1.805l3.393-1.884a7.418 7.418 0 0 0-6.479-3.807c-4.1 0-7.422 3.33-7.422 7.438 0 4.107 3.323 7.437 7.422 7.437a7.418 7.418 0 0 0 6.479-3.807l-3.393-1.883Zm-34.366 5.399h4.242V.521h-4.241v20.775ZM85.653.521v20.775h4.242v-6.224l5.027 6.224h5.422l-6.392-7.394 5.926-6.9H94.69l-4.793 5.737V.52h-4.242Zm-22.59 6.482v1.689c-.697-1.165-2.411-1.98-4.213-1.98-3.718 0-6.653 3.29-6.653 7.423s2.935 7.452 6.653 7.452c1.802 0 3.516-.815 4.213-1.98v1.689h4.242V7.003h-4.242Zm0 8.923c-.61 1.018-1.888 1.775-3.312 1.775a3.547 3.547 0 0 1-3.544-3.551 3.548 3.548 0 0 1 3.544-3.552c1.424 0 2.702.786 3.312 1.834v3.494Z"/><path fill="#2FBDEE" d="M9.126.062a2.491 2.491 0 0 0-2.3 3.447 2.491 2.491 0 0 0 2.3 1.54h2.489V2.556A2.491 2.491 0 0 0 9.125.062Zm0 6.65H2.489A2.491 2.491 0 0 0 0 9.206 2.491 2.491 0 0 0 2.489 11.7h6.637a2.492 2.492 0 0 0 2.489-2.494 2.492 2.492 0 0 0-2.49-2.494Z"/><path fill="#29AD72" d="M24.888 9.206A2.492 2.492 0 0 0 22.4 6.712a2.491 2.491 0 0 0-2.489 2.494V11.7h2.49a2.492 2.492 0 0 0 2.488-2.494Zm-6.637 0v-6.65A2.492 2.492 0 0 0 15.762.062a2.491 2.491 0 0 0-2.489 2.494v6.65a2.491 2.491 0 0 0 2.49 2.494 2.492 2.492 0 0 0 2.488-2.494"/><path fill="#E9A929" d="M15.762 25a2.491 2.491 0 0 0 2.49-2.494 2.492 2.492 0 0 0-2.49-2.493h-2.489v2.493A2.491 2.491 0 0 0 15.763 25Zm0-6.65H22.4a2.492 2.492 0 0 0 2.488-2.494 2.492 2.492 0 0 0-2.489-2.494h-6.637a2.491 2.491 0 0 0-2.3 3.448 2.49 2.49 0 0 0 2.3 1.54"/><path fill="#DC1C50" d="M0 15.856a2.491 2.491 0 0 0 2.489 2.494 2.492 2.492 0 0 0 2.489-2.494v-2.494h-2.49A2.491 2.491 0 0 0 0 15.856Zm6.637 0v6.65A2.491 2.491 0 0 0 9.126 25a2.491 2.491 0 0 0 2.489-2.494v-6.65a2.492 2.492 0 0 0-2.49-2.494 2.491 2.491 0 0 0-2.488 2.494Z"/></g><defs><clipPath id="a"><path fill="#fff" d="M0 0h100v25H0z"/></clipPath></defs></svg>
